X:105
T:Savage Dance. RH.105
R:reel
S:Rev.R.Harrison’s MS,c1815,Cumbria
O:England
A:Temple Sowerby,Cumbria
Z:vmp.Simon Wilson. Review PJH, 2008.
M:C|
L:1/8
Q:1/2=80
K:G
G2Gd Bd GB|A2D2G/A/B/A/ GD|\
G2Gd Bd GB|A2D2 G4||!
B2Bc dBGg|e2ce dBAG|\
B2Bc dBAg|e2Be d4|]

